app/img/icons/methodology.svg

<svg width="50" height="50" viewBox="0 0 50 50" fill="none" xmlns="http://www.w3.org/2000/svg">
<path d="M32.2602 36.9477C32.3694 36.8384 32.5086 36.7641 32.6601 36.7339C32.8117 36.7038 32.9687 36.7193 33.1114 36.7784C33.2542 36.8375 33.3762 36.9376 33.462 37.066C33.5479 37.1945 33.5937 37.3455 33.5937 37.5V42.9688H35.1562V37.5C35.1563 37.3455 35.2021 37.1945 35.288 37.066C35.3738 36.9376 35.4958 36.8375 35.6385 36.7784C35.7813 36.7193 35.9383 36.7038 36.0899 36.7339C36.2414 36.7641 36.3806 36.8384 36.4898 36.9477L37.5 37.9578L38.7391 36.7188L34.375 32.3547L30.0109 36.7188L31.25 37.9578L32.2602 36.9477Z" fill="#BE9230"/>
<path d="M25.4578 41.4063L21.0937 37.0422L16.7297 41.4063L17.9687 42.6453L18.9789 41.6352C19.0882 41.5259 19.2273 41.4516 19.3789 41.4214C19.5304 41.3913 19.6875 41.4068 19.8302 41.4659C19.9729 41.525 20.0949 41.6251 20.1808 41.7535C20.2666 41.882 20.3125 42.033 20.3125 42.1875V47.6562H21.875V42.1875C21.875 42.033 21.9209 41.882 22.0067 41.7535C22.0926 41.6251 22.2146 41.525 22.3573 41.4659C22.5 41.4068 22.6571 41.3913 22.8086 41.4214C22.9601 41.4516 23.0993 41.5259 23.2086 41.6352L24.2187 42.6453L25.4578 41.4063Z" fill="#BE9230"/>
<path d="M26.9805 30.2399C26.4141 30.8098 25.7403 31.2616 24.998 31.5691C24.2557 31.8766 23.4597 32.0337 22.6562 32.0313H19.2633C18.4597 32.0334 17.6638 31.8762 16.9214 31.5687C16.179 31.2612 15.505 30.8096 14.9383 30.2399C14.5165 29.8156 14.0148 29.4793 13.4622 29.2504C12.9095 29.0215 12.3169 28.9045 11.7188 28.9063H1.5625V35.6141L6.47891 30.6977C6.62541 30.5512 6.82409 30.4689 7.03125 30.4689C7.23841 30.4689 7.43709 30.5512 7.58359 30.6977L13.0523 36.1664C13.1988 36.3129 13.2811 36.5116 13.2811 36.7188C13.2811 36.9259 13.1988 37.1246 13.0523 37.2711L10.7086 39.6149C10.5621 39.7613 10.3634 39.8436 10.1562 39.8436C9.94909 39.8436 9.75041 39.7613 9.60391 39.6149L9.375 39.386V43.75C9.375 43.9572 9.29269 44.156 9.14618 44.3025C8.99966 44.449 8.80095 44.5313 8.59375 44.5313H5.46875C5.26155 44.5313 5.06284 44.449 4.91632 44.3025C4.76981 44.156 4.6875 43.9572 4.6875 43.75V39.386L4.45859 39.6149C4.31209 39.7613 4.11341 39.8436 3.90625 39.8436C3.69909 39.8436 3.50041 39.7613 3.35391 39.6149L1.5625 37.8235V47.6563H18.75V44.0735L18.5211 44.3024C18.3746 44.4488 18.1759 44.5311 17.9688 44.5311C17.7616 44.5311 17.5629 44.4488 17.4164 44.3024L15.0727 41.9586C14.9262 41.8121 14.8439 41.6134 14.8439 41.4063C14.8439 41.1991 14.9262 41.0004 15.0727 40.8539L20.5414 35.3852C20.6879 35.2387 20.8866 35.1564 21.0938 35.1564C21.3009 35.1564 21.4996 35.2387 21.6461 35.3852L27.1148 40.8539C27.2613 41.0004 27.3436 41.1991 27.3436 41.4063C27.3436 41.6134 27.2613 41.8121 27.1148 41.9586L24.7711 44.3024C24.6246 44.4488 24.4259 44.5311 24.2188 44.5311C24.0116 44.5311 23.8129 44.4488 23.6664 44.3024L23.4375 44.0735V47.6563H48.4375V28.9063H30.2008C29.6026 28.905 29.01 29.0222 28.4573 29.251C27.9046 29.4799 27.4026 29.816 26.9805 30.2399ZM34.9273 30.6977L40.3961 36.1664C40.5426 36.3129 40.6248 36.5116 40.6248 36.7188C40.6248 36.9259 40.5426 37.1246 40.3961 37.2711L38.0523 39.6149C37.9058 39.7613 37.7072 39.8436 37.5 39.8436C37.2928 39.8436 37.0942 39.7613 36.9477 39.6149L36.7188 39.386V43.75C36.7188 43.9572 36.6364 44.156 36.4899 44.3025C36.3434 44.449 36.1447 44.5313 35.9375 44.5313H32.8125C32.6053 44.5313 32.4066 44.449 32.2601 44.3025C32.1136 44.156 32.0312 43.9572 32.0312 43.75V39.386L31.8023 39.6149C31.6558 39.7613 31.4572 39.8436 31.25 39.8436C31.0428 39.8436 30.8442 39.7613 30.6977 39.6149L28.3539 37.2711C28.2074 37.1246 28.1252 36.9259 28.1252 36.7188C28.1252 36.5116 28.2074 36.3129 28.3539 36.1664L33.8227 30.6977C33.9692 30.5512 34.1678 30.4689 34.375 30.4689C34.5822 30.4689 34.7808 30.5512 34.9273 30.6977Z" fill="#0033A1"/>
<path d="M29.418 25.7813C28.8199 25.7797 28.2275 25.8967 27.675 26.1257C27.1225 26.3546 26.6209 26.6908 26.1992 27.1149C25.6327 27.6845 24.9588 28.1362 24.2165 28.4437C23.4743 28.7512 22.6784 28.9084 21.875 28.9063H20.043C19.2396 28.9083 18.4439 28.7511 17.7016 28.4438C16.9594 28.1364 16.2855 27.685 15.7188 27.1157C15.2973 26.6913 14.7957 26.3548 14.2432 26.1258C13.6906 25.8967 13.0981 25.7796 12.5 25.7813H1.5625V27.3438H11.7188C12.5222 27.3414 13.3182 27.4985 14.0605 27.806C14.8028 28.1135 15.4766 28.5653 16.043 29.1352C16.4651 29.5591 16.9671 29.8952 17.5198 30.124C18.0725 30.3529 18.665 30.4701 19.2633 30.4688H22.6562C23.2544 30.4706 23.847 30.3536 24.3997 30.1247C24.9523 29.8958 25.454 29.5594 25.8758 29.1352C26.4425 28.5655 27.1165 28.1139 27.8589 27.8064C28.6013 27.4989 29.3972 27.3417 30.2008 27.3438H48.4375V25.7813H29.418Z" fill="#0033A1"/>
<path d="M7.81249 42.9688V37.5C7.81252 37.3455 7.85836 37.1945 7.94421 37.066C8.03005 36.9376 8.15206 36.8375 8.29479 36.7784C8.43753 36.7193 8.59458 36.7038 8.74611 36.7339C8.89763 36.7641 9.03682 36.8384 9.14608 36.9477L10.1562 37.9578L11.3953 36.7188L7.03124 32.3547L2.66718 36.7188L3.90624 37.9578L4.9164 36.9477C5.02566 36.8384 5.16485 36.7641 5.31637 36.7339C5.4679 36.7038 5.62495 36.7193 5.76769 36.7784C5.91042 36.8375 6.03243 36.9376 6.11827 37.066C6.20412 37.1945 6.24996 37.3455 6.24999 37.5V42.9688H7.81249Z" fill="#BE9230"/>
<path d="M17.3101 27.5445L22.4273 22.4273L23.4374 23.4375L24.9999 21.875L25.7812 22.6562L36.7187 11.7188L35.1562 10.1562L39.453 5.85938L40.6249 7.03125L42.1874 5.46875L38.2812 1.5625L36.7187 3.125L37.8905 4.29688L33.5937 8.59375L32.0312 7.03125L29.0679 9.99453L31.021 11.9477L29.9163 13.0523L27.9632 11.0992L26.7241 12.3383L28.6773 14.2914L27.5726 15.3961L25.6194 13.443L24.3804 14.682L26.3335 16.6352L25.2288 17.7398L23.2757 15.7867L21.0937 17.9688L21.8749 18.75L20.3124 20.3125L21.3226 21.3227L16.2054 26.4398L17.3101 27.5445Z" fill="#BE9230"/>
</svg>

<svg width="50" height="50" fill="none" xmlns="http://www.w3.org/2000/svg"><path d="M32.26 36.948a.781.781 0 011.334.552v5.469h1.562V37.5a.782.782 0 011.334-.552l1.01 1.01 1.24-1.24-4.365-4.363-4.364 4.364 1.239 1.239 1.01-1.01zM25.458 41.406l-4.364-4.364-4.364 4.364 1.239 1.24 1.01-1.01a.781.781 0 011.334.551v5.47h1.562v-5.47a.782.782 0 011.334-.552l1.01 1.01 1.239-1.239z" fill="#BE9230"/><path d="M26.98 30.24a6.07 6.07 0 01-4.324 1.791h-3.393a6.078 6.078 0 01-4.325-1.791 4.52 4.52 0 00-3.22-1.334H1.564v6.708l4.916-4.916a.781.781 0 011.105 0l5.468 5.468a.781.781 0 010 1.105l-2.343 2.344a.782.782 0 01-1.105 0l-.229-.229v4.364a.781.781 0 01-.781.781H5.469a.781.781 0 01-.782-.781v-4.364l-.228.229a.781.781 0 01-1.105 0l-1.792-1.791v9.832H18.75v-3.582l-.229.228a.781.781 0 01-1.105 0l-2.343-2.343a.781.781 0 010-1.105l5.468-5.469a.781.781 0 011.105 0l5.469 5.469a.781.781 0 010 1.105l-2.344 2.343a.781.781 0 01-1.105 0l-.229-.228v3.582h25v-18.75H30.201a4.533 4.533 0 00-3.22 1.334zm7.947.458l5.47 5.468a.781.781 0 010 1.105l-2.345 2.344a.781.781 0 01-1.104 0l-.23-.229v4.364a.782.782 0 01-.78.781h-3.126a.781.781 0 01-.78-.781v-4.364l-.23.229a.781.781 0 01-1.104 0l-2.344-2.344a.781.781 0 010-1.105l5.469-5.468a.781.781 0 011.104 0z" fill="#0033A1"/><path d="M29.418 25.781a4.52 4.52 0 00-3.219 1.334 6.076 6.076 0 01-4.324 1.791h-1.832a6.081 6.081 0 01-4.324-1.79A4.518 4.518 0 0012.5 25.78H1.562v1.563H11.72a6.071 6.071 0 014.324 1.791 4.529 4.529 0 003.22 1.334h3.393a4.521 4.521 0 003.22-1.334 6.077 6.077 0 014.325-1.791h18.236V25.78H29.419z" fill="#0033A1"/><path d="M7.812 42.969V37.5a.781.781 0 011.334-.552l1.01 1.01 1.24-1.24-4.365-4.363-4.364 4.364 1.24 1.239 1.01-1.01a.781.781 0 011.333.552v5.469h1.562zM17.31 27.544l5.117-5.117 1.01 1.01L25 21.875l.781.781L36.72 11.72l-1.563-1.563 4.297-4.297 1.172 1.172 1.562-1.562-3.906-3.907-1.562 1.563 1.172 1.172-4.297 4.297L32.03 7.03l-2.963 2.964 1.953 1.953-1.105 1.104-1.953-1.953-1.239 1.24 1.953 1.952-1.104 1.105-1.954-1.953-1.239 1.239 1.954 1.953-1.105 1.105-1.953-1.953-2.182 2.182.78.781-1.562 1.563 1.01 1.01-5.117 5.117 1.105 1.104z" fill="#BE9230"/></svg>
